X:1
T:Trio Sonata in Eb major
T:II - Adagio
T:Johann Sebastian Bach (1685 - 1750)
T:BWV 525
%%score { 1 | 2 | 3 }
L:1/8
M:12/8
K:Eb
V:1 treble nm="Organ" snm="Org."
V:2 treble 
V:3 bass 
V:1
 z8 z3[Q:1/4=60]"^Grave" g | c2 e{e} d2 G c>=Bc C2 c- | %2
 c/e/d/f/a/c/ =B/d/A/G/f- f/d/e/g/c'/g/ ^f/=a/e/d/c'- | %3
 c'/=a/b/g/e- e/c/d/f/b- b/g/c/e/d/c/ d/B/G/B/d/e/ | =A/G/^F/A/c- cg^f g2 z z z g- | %5
 g/G/A/c/f/d/ c/B/d/f/a/f/ g2 z z z e- | e/E/F/=B/d/B/ A/G/B/d/f/d/ e/B/c z B/d/F/B/d- | %7
 d/D/E/G/A/F/ G/=B/c/e/f- f/F/G/_B/e/c/ B/A/d/f/a/f/ | g/a/ba gc'>b a/=e/f z e/g/B/e/g- | %9
 g/G/A/c/_d/B/ c/=e/f/a/g/f/ _e/=d/e/g/c'/g/ f/e/d/c/=B/c/ | %10
 =B2 z z z d d/B/c/e/=a- a/c'/b/a/b/g/ | ^f/b/=a z e/d/f z g/d/c/B/c/e/ B/=A/c/B/A/B/ | %12
 G/B/=A/G/A/^F/ DGF G3- G3 :: z | z8 z3 G | c2 A B2 e A>BA a/e/_d/c/_g | %16
 z/ f/e/_d/a/g/ a3- a/g/f/e/b/=a/ b3- | b/a/g/f/a/f/ a/_g/f/e/g/e/ f/e/_d/c/B/=A/ B3- | %18
 B/A/G/F/=E/G/ C2 z z/ G/A/c/f/_d/ c/B/=e/g/b/g/ | a/b/c'b a_d>c d/G/A z G/B/_D/G/B- | %20
 B/B,/C/E/F/_D/ E/G/A/B/c c/C/D/F/B/_G/ F/E/=A/c/e/c/ | _d/e/fe d G2- GcA F=Bc- | %22
 c/D/=E/G/B- B/c/B/A/B/G/ A/E/F/A/d- d/=B/c/e/a- | a/g/f/g/a/f/{e} d2 g c2 e d2 G | %24
 c>=Bc D2 c c/=A/B/d/g/=e/ _d/c/e/g/b/g/ | a2 z z z f- f/F/G/B/e/c/ B/A/c/e/g/e/ | %26
 f2 z z z d d/D/E/G/c/A/ G/F/=B/d/f/d/ | e/f/gf e/d/c/B/A/G/ ^F/G/=A z z z A- | %28
 A/G/=B/d/f f/g/f/e/f/d/ ed/c/c' z a/g/=b | c'/g/f/e/f/a/ e/d/f/e/d/e/ c3- !fermata!c3 :| %30
V:2
 z12 | z12 | z8 z3 d | G2 B =A2 D G>^FG G,2 G- | %4
 G/B/=A/c/e/G/ ^F/A/E/D/c- c/A/B/d/g/=e/ _d/c/e/g/b/g/ | a2 z z z f- f/F/G/B/e/c/ B/A/c/e/g/e/ | %6
 f2 z z z d- d/D/E/G/c/A/ G/F/=B/d/f/d/ | e/f/gf ea>f g/d/e z d/f/A/d/f- | %8
 f/F/G/B/c/A/ B/d/e/f/g- g/G/A/c/f/_d/ c/B/=e/g/b/g/ | a/b/c'b a d2- dge c^fg | %10
 Mg/=A/=B/d/f- f/g/f/e/f/d/ e2 z z z E | E/D/^F/=A/c- c/d/c/B/c/A/ BA/G/g z e/d/^f | %12
 g/d/c/B/c/e/ B/=A/c/B/_A/B/ G3- G3 :: D | G2 E F2 B E>FE e/B/A/G/_d | %15
 z/ c/B/A/e/d/ e3- e/_d/c/B/c/A/ d_gc | f3- f/g/f/e/f/d/ B>c_d G/A/G/F/G/=E/ | %17
 C2 F B,_DC- C F2- F/A/G/F/=E/F/ | =E2 z z/ C/E/G/B/G/ A/E/F z E/G/B,/E/G- | %19
 G/G,/A,/C/_D/B,/ C/=E/F/A/B- B/B,/C/_E/A/F/ E/D/G/B/_d/B/ | c/_d/ed cf>e d/=A/B z A/c/E/A/c- | %21
 c/C/_D/F/_G/E/ F/=A/B/_d/c/B/ _A/=G/A/c/f/c/ B/A/G/F/=E/F/ | E2 z z z c F2 A G2 C | %23
 F>=EF G,/G/F/_E/F/D/ E/=B,/C/E/A- A/^F/G/B/e- | e/d/c/d/e/c/ =a/g/^f/g/a/d/ e/c/d z z z g- | %25
 g/G/A/c/f/d/ c/B/d/f/a/f/ g2 z z z g- | g/E/F/=B/d/B/ A/G/B/d/f/d/ e/B/c z B/d/F/B/d- | %27
 d/D/E/G/A/F/ G/=B/c/d/e- e/G/^F/A/c- c/d/c/B/c/=A/ | =B/e/d z A/G/B z c/G/F/E/F/A/ E/D/F/E/D/E/ | %29
 C/E/D/C/D/=B,/ G,CB, C3- C3 :| %30
V:3
 z12 | C2 z B,2 z A,2 z E,2 z | F,2 z G,2 z C,2 B,, =A,,G,,^F,, | G,,2 z F,,2 z E,,2 z B,,2 z | %4
 C,2 z D,2 z G,,G,F, =E,D,C, | F,,F,E, D,C,B,, E,,E,D, C,B,,A,, | %6
 D,,D,C, =B,,=A,,G,, C,2 E, D,2 G,, | C,>=B,,C, C,,2 D, E,2 G, F,2 B,, | %8
 E,>D,E, E,,2 =E, F,2 A, G,2 C, | F,>=E,F, F,,2 =B,, C,2 _B,, A,,3 | %10
 G,,2 =A,, =B,,D,G,, C,2 D, E,G,C, | D,2 =E, ^F,=A,D, G,2 _E, C,2 D, | E,2 C, D,2 D,, G,,3- G,,3 :: %13
 z | z z C, D,2 G,, C,3- C,CB, | A,2 F, G,2 C, F,3- F,E,A, | _D,F,E, =D,C,B,, E,G,F, =E,D,C, | %17
 F,2 D, E,2 A, _D,>E,D, _D2 G, | C2 B, A,2 G, F,2 A, G,2 C, | F,>=E,F, F,,2 G, A,2 C B,2 _E, | %20
 A,>G,A, A,,2 =A, B,2 _D C2 F, | B,>=A,B, B,,2 =E, F,2 _E, _D,3 | C,2 D, =E,C,E, F,2 F,, E,,2 _E, | %23
 D,2 C, =B,,G,,B,, C,2 C B,2 _B,, | A,,2 G,, ^F,,D,,F,, G,,G,F, =E,D,C, | %25
 F,,F,E, D,C,B,, E,,E,D, C,B,,A,, | D,,D,C, =B,,=A,,G,, C,2 E, D,2 G,, | %27
 C,>=B,,C, C,,2 C, D,2 =E, ^F,=A,D, | G,2 =A, =B,DG, C2 _A, F,2 G, | %29
 A,2 F, G,2 G,, C,3- !fermata!C,3 :| %30

